X:36
T:Polonäs ur Lars Larssons notbok
S:efter Lars Larsson
O:Kumla, Västmanland
B:Lars Larssons notbok, nr 36
B:http://www.smus.se/earkiv/fmk/browselarge.php?lang=sw&katalogid=Ma+18&bildnr=00012
R:Slängpolska
Z:Nils L
M:3/4
L:1/16
K:Gm
B2>A2 G4 g4 | f2af d2dc B2A2 | B2A2 G2A2 B2c2 | d2ec d2B2 F2D2 | 
B2>A2 G4 g4 | f2f d2c2 B2A2 | B2A2 G2A2 B2c2 | cdec d4 D4 ||
B4 F4 B4 | c2d2 e2dc d2B2 | A2G2 F2AF D4 | 
B4 F4 B4 |  c2d2 e2dc d2B2 | A2G2 F2G2 A2d2 | BAGF G4 G,4 |

